X:75
T:Steyrer Tanz in G, nr. 37
C:traditionell
R:Steirer
A:Hallstatt, Salzkammergut
B:Corpus Musicae Popularis Austriacae (COMPA), 5.Band: J.M.Schmalnauer " Tanz Musik", Verlag Boehlau, Wien 1996
S:manuscript des Johann Michael Schmalnauer um 1820
N:im der quelle in G
Z:abc transcription Simon Wascher
F:http://simonwascher.info/TradArchiv/
M:3/4
L:1/8
K:G
V:1
%violino 1mo
P:g:Ap:
d2 f2 a2 | dd'bg e2 | ec'af d2 | GgdB G2 |\
d2 f2 a2 | dd'bg e2 | ec'agfd | g4 :||
V:2
%violino 2do
[A2F2] [d2D2] [f2A2] | Bbge c2 | Aafd A2 | DdBG B,2 |\
cafedB | [A2F2] [d2D2] [f2A2] | Bbge c2 | AafdcA | B4 :||
